X: 24856
T: Magh Seóla
R: barndance
M: 4/4
K: Aminor
|:Bc d2 BA G2|G2 GA BG e2|e2 dc BG B2|A2 A2 Ae d2|
B2 g2 fg e2|ed B2 AB G2|AB BA GF G2|G2 G2 G2 D2:|
|:B2 cd d2 BA|G2 G2 GA BG|e2 e2 dc BG|B2 A2 A2 Ae|
d2 B2 g2 fg|e2 ed B2 AB|G2 AB BA GF|G2 G2 G2 D2:|
Bc/B/ AG d2 d2|ed ce d2 ga|bd gb ag fd|dc Bc A2 Ae|
d2 B2 ga/g/ fg|e2 ed B2 AB|G2 AB BA GF|G2 G2 G2 D2||

